X:1
T:Partition sans titre
C:Compositeur / Arrangeur
L:1/8
M:4/4
I:linebreak $
K:G
V:1 treble nm="Violon" snm="Vln."
V:1
"Em" E2 D2 E2 B,2 | EEFF GA/G/"D" F2 |"Em" BBAA GA/G/ F[B,B] | E2"D" DF"Em" E4 |] %4
w: Rose Rose Rose Red|Will I ev er see th ee wed?|I will mar ry at thy _ will, sire,|at thy _ will.|
w: Ding Dong, Ding Dong,|Wed ding bells on an ap ril morn|Carve thy na me on a moss covered stone,|moss cov ered stone.|
